X: 19
T: Sligo Maid, The
Z: GaryAMartin
S: https://thesession.org/tunes/399#setting48910
R: reel
M: 4/4
L: 1/8
K: Ador
|:A2 BA Bdeg|gedB AGEG|G2 BG dGBG|DEGA BGdB|
A2 BA Bdeg|gedB AGEG|B2 BG ABGE|DEGA BA A2:|
|:eaag a2 ga|bgab ge d2|egge g2 ge|dega bgag|
eaag a2 ga|bgab ge d2|eggg edBd|dBgB BA A2:|

%-------------------- TUNE SEPARATOR --------------------%

